X: 325
T: Martin's onehorned cow
C: anon.
O: Ireland
B: Francis O'Neill: "The Dance Music of Ireland" (1907) no. 325
R: Double jig
Z: Transcribed by Frank Nordberg - http://www.musicaviva.com
F: http://www.musicaviva.com/abc/tunes/ireland/oneill-1001/oneill-1001-032
5.abc
m: Tn2 = (3n/o/n/ m/n/
M: 6/8
L: 1/8
K: D
F2A- AFA|BGB AFD|F2A- AFD|EFE (TE2D)|F2A- AFA|BGB AFD|FAF GEC|DED D3:|
|:(d2B) cBA|(B/c/d).B AFD|(d2B) cAF|EFE EFA|(d2B) cBA|(B/c/d).B AFD|FAF G
EC|DED D3:|
W:
W:
W: From Musica Viva - http://www.musicaviva.com
W: the Internet center for free sheet music downloads.


